app/images/discover.svg

<svg xmlns="http://www.w3.org/2000/svg" width="24" height="24"><path d="M.115 8.291c.398-1.175 1.713-1.82 2.941-1.437 1.095.342 1.748 1.391 1.586 2.452l3.987 1.238a3.422 3.422 0 00-.251.743l-3.991-1.24c-.524.937-1.685 1.409-2.775 1.069C.386 10.732-.282 9.467.115 8.291zm0 7.417c-.398-1.177.271-2.44 1.497-2.823 1.101-.342 2.27.141 2.788 1.094l3.981-1.253c.056.26.141.508.252.744l-3.986 1.254c.145 1.051-.504 2.084-1.591 2.424-1.228.383-2.542-.264-2.941-1.44zm4.539 6.001c-1.042-.728-1.274-2.129-.516-3.129.682-.9 1.93-1.17 2.931-.686l2.45-3.261c.201.175.421.328.659.458l-2.457 3.268a2.17 2.17 0 01.193 2.855c-.758 1.001-2.218 1.223-3.26.495zm14.69-19.417c1.044.727 1.275 2.128.518 3.129-.681.901-1.928 1.17-2.931.687l-2.451 3.26a3.724 3.724 0 00-.659-.458l2.458-3.266a2.17 2.17 0 01-.193-2.856c.757-1.003 2.214-1.224 3.258-.496zm4.541 5.999c.399 1.178-.272 2.441-1.498 2.825-1.098.341-2.27-.141-2.787-1.092l-3.982 1.251a3.281 3.281 0 00-.253-.744l3.989-1.254c-.146-1.049.504-2.084 1.591-2.423 1.226-.383 2.54.26 2.94 1.437zm0 7.417c-.398 1.175-1.714 1.823-2.94 1.44-1.098-.344-1.748-1.393-1.587-2.452l-3.987-1.238c.111-.236.195-.485.251-.744l3.992 1.24c.523-.937 1.683-1.409 2.773-1.069 1.226.383 1.895 1.647 1.498 2.823zm-4.541 6.001c-1.04.727-2.501.506-3.258-.495a2.171 2.171 0 01.214-2.877l-2.466-3.253c.237-.13.457-.284.657-.46l2.466 3.255c.997-.464 2.228-.191 2.905.701.757 1 .522 2.402-.518 3.129zM12 0c1.289 0 2.333 1.001 2.333 2.241 0 1.105-.831 2.02-1.926 2.205v4.027a3.451 3.451 0 00-.815 0V4.446c-1.094-.185-1.925-1.1-1.925-2.205C9.667 1.001 10.711 0 12 0zm.407 19.555c1.095.186 1.926 1.101 1.926 2.207C14.333 23 13.289 24 12 24c-1.289 0-2.333-1-2.333-2.238 0-1.106.831-2.021 1.925-2.207v-4.026a3.904 3.904 0 00.815 0zM12 9.76c1.288 0 2.332 1.003 2.332 2.241 0 1.239-1.043 2.243-2.332 2.241-1.289-.002-2.333-1.002-2.333-2.241 0-1.238 1.045-2.241 2.333-2.241zM4.655 2.292c1.04-.727 2.501-.507 3.258.496.678.895.565 2.11-.214 2.877l2.466 3.252c-.236.13-.456.285-.656.46L7.041 6.121c-.997.465-2.228.193-2.903-.7-.758-1.001-.523-2.402.517-3.129z" fill="rgba(119,119,119,1)"/></svg>

<svg xmlns="http://www.w3.org/2000/svg" width="24" height="24"><path d="M 0.115 8.291 C 0.513 7.116 1.828 6.471 3.056 6.854 C 4.151 7.196 4.804 8.245 4.642 9.306 L 8.629 10.544 C 8.518 10.778 8.434 11.028 8.378 11.287 L 4.387 10.047 C 3.863 10.984 2.702 11.456 1.612 11.116 C 0.386 10.732 -0.282 9.467 0.115 8.291 Z M 0.115 15.708 C -0.283 14.531 0.386 13.268 1.612 12.885 C 2.713 12.543 3.882 13.026 4.4 13.979 L 8.381 12.726 C 8.437 12.986 8.522 13.234 8.633 13.47 L 4.647 14.724 C 4.792 15.775 4.143 16.808 3.056 17.148 C 1.828 17.531 0.514 16.884 0.115 15.708 Z M 4.654 21.709 C 3.612 20.981 3.38 19.58 4.138 18.58 C 4.82 17.68 6.068 17.41 7.069 17.894 L 9.519 14.633 C 9.72 14.808 9.94 14.961 10.178 15.091 L 7.721 18.359 C 8.481 19.127 8.585 20.327 7.914 21.214 C 7.156 22.215 5.696 22.437 4.654 21.709 Z M 19.344 2.292 C 20.388 3.019 20.619 4.42 19.862 5.421 C 19.181 6.322 17.934 6.591 16.931 6.108 L 14.48 9.368 C 14.279 9.194 14.06 9.04 13.821 8.91 L 16.279 5.644 C 15.519 4.876 15.414 3.676 16.086 2.788 C 16.843 1.785 18.3 1.564 19.344 2.292 Z M 23.885 8.291 C 24.284 9.469 23.613 10.732 22.387 11.116 C 21.289 11.457 20.117 10.975 19.6 10.024 L 15.618 11.275 C 15.563 11.015 15.478 10.766 15.365 10.531 L 19.354 9.277 C 19.208 8.228 19.858 7.193 20.945 6.854 C 22.171 6.471 23.485 7.114 23.885 8.291 Z M 23.885 15.708 C 23.487 16.883 22.171 17.531 20.945 17.148 C 19.847 16.804 19.197 15.755 19.358 14.696 L 15.371 13.458 C 15.482 13.222 15.566 12.973 15.622 12.714 L 19.614 13.954 C 20.137 13.017 21.297 12.545 22.387 12.885 C 23.613 13.268 24.282 14.532 23.885 15.708 Z M 19.344 21.709 C 18.304 22.436 16.843 22.215 16.086 21.214 C 15.408 20.318 15.521 19.104 16.3 18.337 L 13.834 15.084 C 14.071 14.954 14.291 14.8 14.491 14.624 L 16.957 17.879 C 17.954 17.415 19.185 17.688 19.862 18.58 C 20.619 19.58 20.384 20.982 19.344 21.709 Z M 12 0 C 13.289 0 14.333 1.001 14.333 2.241 C 14.333 3.346 13.502 4.261 12.407 4.446 L 12.407 8.473 C 12.273 8.457 12.136 8.45 11.999 8.45 C 11.861 8.45 11.727 8.457 11.592 8.473 L 11.592 4.446 C 10.498 4.261 9.667 3.346 9.667 2.241 C 9.667 1.001 10.711 0 12 0 Z M 12.407 19.555 C 13.502 19.741 14.333 20.656 14.333 21.762 C 14.333 23 13.289 24 12 24 C 10.711 24 9.667 23 9.667 21.762 C 9.667 20.656 10.498 19.741 11.592 19.555 L 11.592 15.529 C 11.727 15.543 11.86 15.551 11.999 15.551 C 12.137 15.551 12.273 15.543 12.407 15.529 Z M 12 9.76 C 13.288 9.76 14.332 10.763 14.332 12.001 C 14.332 13.24 13.289 14.244 12 14.242 C 10.711 14.24 9.667 13.24 9.667 12.001 C 9.667 10.763 10.712 9.76 12 9.76 Z M 4.655 2.292 C 5.695 1.565 7.156 1.785 7.913 2.788 C 8.591 3.683 8.478 4.898 7.699 5.665 L 10.165 8.917 C 9.929 9.047 9.709 9.202 9.509 9.377 L 7.041 6.121 C 6.044 6.586 4.813 6.314 4.138 5.421 C 3.38 4.42 3.615 3.019 4.655 2.292 Z" fill="rgba(119,119,119,1)"></path></svg>
